X: 1
T: Mrs. Mary Stoker
C: Muriel Johnstone
R: strathspey
B:
Z: John Chambers <jc:trillian.mit.edu>
M: C
L: 1/8
K: G
Bc \
| "G"d2 g>d B<G G>B | "Am"c>B AG "C"E2 "D7"D2 \
| "G"D>E GA B2 Bd | "C"(3efg "G"d>B "Am"A2 "D7"d2 |
| "G"d2 g>d B<G G>B | "Am"c>B AG "C"E2 EG \
| "G"D>E GA B2 "C"ge | "D7"dG "G"G2 ||
G>F \
| "C"E2 (3EFG "G"D2 D<G | "Am"A>G "D7"AB "G"d3 e \
| "Bm"d2 BA "Em"G2 GB | "Am"c>B AG "C"E2 "D7"D2 |
| "G"d2 g>d "G7"B<G G>B | "Am"c>B AG "C"E2 EG \
| "G"D>E GA B2 "C"ge | "D7"dG "G"G2 |]
